images/50860664.svg

<?xml version="1.0" encoding="UTF-8"?>
<svg xmlns="http://www.w3.org/2000/svg" xmlns:xlink="http://www.w3.org/1999/xlink" width="300pt" height="300pt" viewBox="0 0 300 300" version="1.1">
<defs>
<g>
<symbol overflow="visible" id="glyph0-0">
<path style="stroke:none;" d="M 0.546875 1.9375 L 0.546875 -7.75 L 6.046875 -7.75 L 6.046875 1.9375 Z M 1.171875 1.328125 L 5.4375 1.328125 L 5.4375 -7.140625 L 1.171875 -7.140625 Z M 1.171875 1.328125 "/>
</symbol>
<symbol overflow="visible" id="glyph0-1">
<path style="stroke:none;" d="M 1.078125 -8.015625 L 5.6875 -8.015625 L 5.6875 -7.109375 L 2.171875 -7.109375 L 2.171875 -4.75 L 5.34375 -4.75 L 5.34375 -3.828125 L 2.171875 -3.828125 L 2.171875 0 L 1.078125 0 Z M 1.078125 -8.015625 "/>
</symbol>
<symbol overflow="visible" id="glyph0-2">
<path style="stroke:none;" d="M 1.078125 -8.015625 L 2.546875 -8.015625 L 6.09375 -1.3125 L 6.09375 -8.015625 L 7.15625 -8.015625 L 7.15625 0 L 5.6875 0 L 2.125 -6.703125 L 2.125 0 L 1.078125 0 Z M 1.078125 -8.015625 "/>
</symbol>
<symbol overflow="visible" id="glyph0-3">
<path style="stroke:none;" d="M 1.078125 -8.015625 L 2.171875 -8.015625 L 2.171875 -4.734375 L 6.109375 -4.734375 L 6.109375 -8.015625 L 7.1875 -8.015625 L 7.1875 0 L 6.109375 0 L 6.109375 -3.8125 L 2.171875 -3.8125 L 2.171875 0 L 1.078125 0 Z M 1.078125 -8.015625 "/>
</symbol>
</g>
</defs>
<g id="surface24089">
<rect x="0" y="0" width="300" height="300" style="fill:rgb(100%,100%,100%);fill-opacity:1;stroke:none;"/>
<path style="fill:none;stroke-width:1.2;stroke-linecap:butt;stroke-linejoin:miter;stroke:rgb(20%,80%,80%);stroke-opacity:1;stroke-miterlimit:10;" d="M 35.25 155.121094 L 43.511719 165.984375 "/>
<path style="fill:none;stroke-width:1.2;stroke-linecap:butt;stroke-linejoin:miter;stroke:rgb(0%,0%,0%);stroke-opacity:1;stroke-miterlimit:10;" d="M 43.511719 165.984375 L 51.773438 176.847656 "/>
<path style=" stroke:none;fill-rule:nonzero;fill:rgb(100%,100%,100%);fill-opacity:1;" d="M 28.25 148.621094 L 35.25 148.621094 L 35.25 161.621094 L 28.25 161.621094 Z M 28.25 148.621094 "/>
<g style="fill:rgb(20%,80%,80%);fill-opacity:1;">
  <use xlink:href="#glyph0-1" x="28.25" y="158.522461"/>
</g>
<path style="fill:none;stroke-width:1.2;stroke-linecap:butt;stroke-linejoin:miter;stroke:rgb(0%,0%,0%);stroke-opacity:1;stroke-miterlimit:10;" d="M 51.773438 176.847656 L 41.214844 202.019531 "/>
<path style="fill:none;stroke-width:1.2;stroke-linecap:butt;stroke-linejoin:miter;stroke:rgb(0%,0%,0%);stroke-opacity:1;stroke-miterlimit:10;" d="M 56.640625 181.847656 L 48.195312 201.984375 "/>
<path style="fill:none;stroke-width:1.2;stroke-linecap:butt;stroke-linejoin:miter;stroke:rgb(0%,0%,0%);stroke-opacity:1;stroke-miterlimit:10;" d="M 78.847656 173.402344 L 51.773438 176.847656 "/>
<path style="fill:none;stroke-width:1.2;stroke-linecap:butt;stroke-linejoin:miter;stroke:rgb(0%,0%,0%);stroke-opacity:1;stroke-miterlimit:10;" d="M 41.214844 202.019531 L 57.738281 223.746094 "/>
<path style="fill:none;stroke-width:1.2;stroke-linecap:butt;stroke-linejoin:miter;stroke:rgb(0%,0%,0%);stroke-opacity:1;stroke-miterlimit:10;" d="M 57.738281 223.746094 L 52.460938 236.332031 "/>
<path style="fill:none;stroke-width:1.2;stroke-linecap:butt;stroke-linejoin:miter;stroke:rgb(20%,80%,80%);stroke-opacity:1;stroke-miterlimit:10;" d="M 52.460938 236.332031 L 47.183594 248.917969 "/>
<path style="fill:none;stroke-width:1.2;stroke-linecap:butt;stroke-linejoin:miter;stroke:rgb(0%,0%,0%);stroke-opacity:1;stroke-miterlimit:10;" d="M 57.738281 223.746094 L 84.816406 220.300781 "/>
<path style="fill:none;stroke-width:1.2;stroke-linecap:butt;stroke-linejoin:miter;stroke:rgb(0%,0%,0%);stroke-opacity:1;stroke-miterlimit:10;" d="M 59.636719 217.03125 L 81.296875 214.273438 "/>
<path style=" stroke:none;fill-rule:nonzero;fill:rgb(100%,100%,100%);fill-opacity:1;" d="M 40.183594 242.417969 L 47.183594 242.417969 L 47.183594 255.417969 L 40.183594 255.417969 Z M 40.183594 242.417969 "/>
<g style="fill:rgb(20%,80%,80%);fill-opacity:1;">
  <use xlink:href="#glyph0-1" x="40.183594" y="252.319336"/>
</g>
<path style="fill:none;stroke-width:1.2;stroke-linecap:butt;stroke-linejoin:miter;stroke:rgb(0%,0%,0%);stroke-opacity:1;stroke-miterlimit:10;" d="M 84.816406 220.300781 L 95.371094 195.128906 "/>
<path style="fill:none;stroke-width:1.2;stroke-linecap:butt;stroke-linejoin:miter;stroke:rgb(0%,0%,0%);stroke-opacity:1;stroke-miterlimit:10;" d="M 95.371094 195.128906 L 78.847656 173.402344 "/>
<path style="fill:none;stroke-width:1.2;stroke-linecap:butt;stroke-linejoin:miter;stroke:rgb(0%,0%,0%);stroke-opacity:1;stroke-miterlimit:10;" d="M 88.605469 196.84375 L 75.386719 179.464844 "/>
<path style="fill:none;stroke-width:1.2;stroke-linecap:butt;stroke-linejoin:miter;stroke:rgb(0%,0%,0%);stroke-opacity:1;stroke-miterlimit:10;" d="M 78.847656 173.402344 L 89.402344 148.230469 "/>
<path style="fill:none;stroke-width:1.2;stroke-linecap:butt;stroke-linejoin:miter;stroke:rgb(0%,0%,0%);stroke-opacity:1;stroke-miterlimit:10;" d="M 89.402344 148.230469 L 82.324219 136.5625 "/>
<path style="fill:none;stroke-width:1.2;stroke-linecap:butt;stroke-linejoin:miter;stroke:rgb(0%,0%,100%);stroke-opacity:1;stroke-miterlimit:10;" d="M 82.324219 136.5625 L 75.242188 124.898438 "/>
<path style="fill:none;stroke-width:1.2;stroke-linecap:butt;stroke-linejoin:miter;stroke:rgb(0%,0%,0%);stroke-opacity:1;stroke-miterlimit:10;" d="M 115.972656 141.976562 L 89.402344 148.230469 "/>
<path style="fill:none;stroke-width:1.2;stroke-linecap:butt;stroke-linejoin:miter;stroke:rgb(0%,0%,0%);stroke-opacity:1;stroke-miterlimit:10;" d="M 111.84375 136.347656 L 90.589844 141.355469 "/>
<path style="fill:none;stroke-width:1.2;stroke-linecap:butt;stroke-linejoin:miter;stroke:rgb(0%,0%,100%);stroke-opacity:1;stroke-miterlimit:10;" d="M 75.242188 124.898438 L 84.152344 114.558594 "/>
<path style="fill:none;stroke-width:1.2;stroke-linecap:butt;stroke-linejoin:miter;stroke:rgb(0%,0%,0%);stroke-opacity:1;stroke-miterlimit:10;" d="M 84.152344 114.558594 L 93.058594 104.21875 "/>
<path style=" stroke:none;fill-rule:nonzero;fill:rgb(100%,100%,100%);fill-opacity:1;" d="M 67.242188 118.398438 L 84.242188 118.398438 L 84.242188 131.398438 L 67.242188 131.398438 Z M 67.242188 118.398438 "/>
<g style="fill:rgb(0%,0%,100%);fill-opacity:1;">
  <use xlink:href="#glyph0-2" x="67.242188" y="128.299805"/>
  <use xlink:href="#glyph0-3" x="75.225586" y="128.299805"/>
</g>
<path style="fill:none;stroke-width:1.2;stroke-linecap:butt;stroke-linejoin:miter;stroke:rgb(0%,0%,0%);stroke-opacity:1;stroke-miterlimit:10;" d="M 93.058594 104.21875 L 105.644531 109.496094 "/>
<path style="fill:none;stroke-width:1.2;stroke-linecap:butt;stroke-linejoin:miter;stroke:rgb(0%,0%,100%);stroke-opacity:1;stroke-miterlimit:10;" d="M 105.644531 109.496094 L 118.230469 114.773438 "/>
<path style="fill:none;stroke-width:1.2;stroke-linecap:butt;stroke-linejoin:miter;stroke:rgb(0%,0%,0%);stroke-opacity:1;stroke-miterlimit:10;" d="M 93.09375 111.195312 L 103.164062 115.417969 "/>
<path style="fill:none;stroke-width:1.2;stroke-linecap:butt;stroke-linejoin:miter;stroke:rgb(0%,0%,100%);stroke-opacity:1;stroke-miterlimit:10;" d="M 103.164062 115.417969 L 113.230469 119.640625 "/>
<path style="fill:none;stroke-width:1.2;stroke-linecap:butt;stroke-linejoin:miter;stroke:rgb(0%,0%,0%);stroke-opacity:1;stroke-miterlimit:10;" d="M 93.058594 104.21875 L 86.804688 77.652344 "/>
<path style="fill:none;stroke-width:1.2;stroke-linecap:butt;stroke-linejoin:miter;stroke:rgb(0%,0%,100%);stroke-opacity:1;stroke-miterlimit:10;" d="M 118.230469 114.773438 L 117.101562 128.375 "/>
<path style="fill:none;stroke-width:1.2;stroke-linecap:butt;stroke-linejoin:miter;stroke:rgb(0%,0%,0%);stroke-opacity:1;stroke-miterlimit:10;" d="M 117.101562 128.375 L 115.972656 141.976562 "/>
<path style=" stroke:none;fill-rule:nonzero;fill:rgb(100%,100%,100%);fill-opacity:1;" d="M 114.230469 108.273438 L 122.230469 108.273438 L 122.230469 121.273438 L 114.230469 121.273438 Z M 114.230469 108.273438 "/>
<g style="fill:rgb(0%,0%,100%);fill-opacity:1;">
  <use xlink:href="#glyph0-2" x="114.230469" y="118.174805"/>
</g>
<path style="fill:none;stroke-width:1.2;stroke-linecap:butt;stroke-linejoin:miter;stroke:rgb(0%,0%,0%);stroke-opacity:1;stroke-miterlimit:10;" d="M 115.972656 141.976562 L 136.648438 159.792969 "/>
<path style="fill:none;stroke-width:1.2;stroke-linecap:butt;stroke-linejoin:miter;stroke:rgb(0%,0%,0%);stroke-opacity:1;stroke-miterlimit:10;" d="M 136.648438 159.792969 L 149.535156 155.292969 "/>
<path style="fill:none;stroke-width:1.2;stroke-linecap:butt;stroke-linejoin:miter;stroke:rgb(0%,0%,100%);stroke-opacity:1;stroke-miterlimit:10;" d="M 149.535156 155.292969 L 162.417969 150.792969 "/>
<path style="fill:none;stroke-width:1.2;stroke-linecap:butt;stroke-linejoin:miter;stroke:rgb(0%,0%,0%);stroke-opacity:1;stroke-miterlimit:10;" d="M 141.34375 164.957031 L 151.652344 161.355469 "/>
<path style="fill:none;stroke-width:1.2;stroke-linecap:butt;stroke-linejoin:miter;stroke:rgb(0%,0%,100%);stroke-opacity:1;stroke-miterlimit:10;" d="M 151.652344 161.355469 L 161.960938 157.757812 "/>
<path style="fill:none;stroke-width:1.2;stroke-linecap:butt;stroke-linejoin:miter;stroke:rgb(0%,0%,0%);stroke-opacity:1;stroke-miterlimit:10;" d="M 131.558594 186.609375 L 136.648438 159.792969 "/>
<path style="fill:none;stroke-width:1.2;stroke-linecap:butt;stroke-linejoin:miter;stroke:rgb(0%,0%,100%);stroke-opacity:1;stroke-miterlimit:10;" d="M 162.417969 150.792969 L 172.757812 159.699219 "/>
<path style="fill:none;stroke-width:1.2;stroke-linecap:butt;stroke-linejoin:miter;stroke:rgb(0%,0%,0%);stroke-opacity:1;stroke-miterlimit:10;" d="M 172.757812 159.699219 L 183.097656 168.609375 "/>
<path style=" stroke:none;fill-rule:nonzero;fill:rgb(100%,100%,100%);fill-opacity:1;" d="M 158.417969 144.292969 L 166.417969 144.292969 L 166.417969 157.292969 L 158.417969 157.292969 Z M 158.417969 144.292969 "/>
<g style="fill:rgb(0%,0%,100%);fill-opacity:1;">
  <use xlink:href="#glyph0-2" x="158.417969" y="154.194336"/>
</g>
<path style="fill:none;stroke-width:1.2;stroke-linecap:butt;stroke-linejoin:miter;stroke:rgb(0%,0%,0%);stroke-opacity:1;stroke-miterlimit:10;" d="M 183.097656 168.609375 L 196.632812 166.886719 "/>
<path style="fill:none;stroke-width:1.2;stroke-linecap:butt;stroke-linejoin:miter;stroke:rgb(0%,0%,100%);stroke-opacity:1;stroke-miterlimit:10;" d="M 196.632812 166.886719 L 210.171875 165.164062 "/>
<path style="fill:none;stroke-width:1.2;stroke-linecap:butt;stroke-linejoin:miter;stroke:rgb(0%,0%,0%);stroke-opacity:1;stroke-miterlimit:10;" d="M 178.003906 195.425781 L 183.097656 168.609375 "/>
<path style="fill:none;stroke-width:1.2;stroke-linecap:butt;stroke-linejoin:miter;stroke:rgb(0%,0%,0%);stroke-opacity:1;stroke-miterlimit:10;" d="M 172.203125 191.546875 L 176.277344 170.09375 "/>
<path style="fill:none;stroke-width:1.2;stroke-linecap:butt;stroke-linejoin:miter;stroke:rgb(0%,0%,100%);stroke-opacity:1;stroke-miterlimit:10;" d="M 210.171875 165.164062 L 215.996094 177.507812 "/>
<path style="fill:none;stroke-width:1.2;stroke-linecap:butt;stroke-linejoin:miter;stroke:rgb(0%,0%,0%);stroke-opacity:1;stroke-miterlimit:10;" d="M 215.996094 177.507812 L 221.816406 189.851562 "/>
<path style="fill:none;stroke-width:1.2;stroke-linecap:butt;stroke-linejoin:miter;stroke:rgb(0%,0%,100%);stroke-opacity:1;stroke-miterlimit:10;" d="M 210.171875 165.164062 L 216.738281 153.199219 "/>
<path style="fill:none;stroke-width:1.2;stroke-linecap:butt;stroke-linejoin:miter;stroke:rgb(0%,0%,0%);stroke-opacity:1;stroke-miterlimit:10;" d="M 216.738281 153.199219 L 223.300781 141.234375 "/>
<path style=" stroke:none;fill-rule:nonzero;fill:rgb(100%,100%,100%);fill-opacity:1;" d="M 206.171875 158.664062 L 214.171875 158.664062 L 214.171875 171.664062 L 206.171875 171.664062 Z M 206.171875 158.664062 "/>
<g style="fill:rgb(0%,0%,100%);fill-opacity:1;">
  <use xlink:href="#glyph0-2" x="206.171875" y="168.56543"/>
</g>
<path style="fill:none;stroke-width:1.2;stroke-linecap:butt;stroke-linejoin:miter;stroke:rgb(0%,0%,0%);stroke-opacity:1;stroke-miterlimit:10;" d="M 221.816406 189.851562 L 211.875 199.203125 "/>
<path style="fill:none;stroke-width:1.2;stroke-linecap:butt;stroke-linejoin:miter;stroke:rgb(0%,0%,100%);stroke-opacity:1;stroke-miterlimit:10;" d="M 211.875 199.203125 L 201.9375 208.554688 "/>
<path style="fill:none;stroke-width:1.2;stroke-linecap:butt;stroke-linejoin:miter;stroke:rgb(0%,0%,0%);stroke-opacity:1;stroke-miterlimit:10;" d="M 215.429688 187.042969 L 207.476562 194.523438 "/>
<path style="fill:none;stroke-width:1.2;stroke-linecap:butt;stroke-linejoin:miter;stroke:rgb(0%,0%,100%);stroke-opacity:1;stroke-miterlimit:10;" d="M 207.476562 194.523438 L 199.523438 202.003906 "/>
<path style="fill:none;stroke-width:1.2;stroke-linecap:butt;stroke-linejoin:miter;stroke:rgb(0%,0%,100%);stroke-opacity:1;stroke-miterlimit:10;" d="M 201.9375 208.554688 L 189.96875 201.988281 "/>
<path style="fill:none;stroke-width:1.2;stroke-linecap:butt;stroke-linejoin:miter;stroke:rgb(0%,0%,0%);stroke-opacity:1;stroke-miterlimit:10;" d="M 189.96875 201.988281 L 178.003906 195.425781 "/>
<path style=" stroke:none;fill-rule:nonzero;fill:rgb(100%,100%,100%);fill-opacity:1;" d="M 197.9375 202.054688 L 205.9375 202.054688 L 205.9375 215.054688 L 197.9375 215.054688 Z M 197.9375 202.054688 "/>
<g style="fill:rgb(0%,0%,100%);fill-opacity:1;">
  <use xlink:href="#glyph0-2" x="197.9375" y="211.956055"/>
</g>
<path style="fill:none;stroke-width:1.2;stroke-linecap:butt;stroke-linejoin:miter;stroke:rgb(0%,0%,0%);stroke-opacity:1;stroke-miterlimit:10;" d="M 178.003906 195.425781 L 152.238281 204.425781 "/>
<path style="fill:none;stroke-width:1.2;stroke-linecap:butt;stroke-linejoin:miter;stroke:rgb(0%,0%,0%);stroke-opacity:1;stroke-miterlimit:10;" d="M 152.238281 204.425781 L 131.558594 186.609375 "/>
<path style="fill:none;stroke-width:1.2;stroke-linecap:butt;stroke-linejoin:miter;stroke:rgb(0%,0%,0%);stroke-opacity:1;stroke-miterlimit:10;" d="M 154.359375 197.777344 L 137.820312 183.523438 "/>
<path style="fill:none;stroke-width:1.2;stroke-linecap:butt;stroke-linejoin:miter;stroke:rgb(0%,0%,0%);stroke-opacity:1;stroke-miterlimit:10;" d="M 223.300781 141.234375 L 250.589844 140.636719 "/>
<path style="fill:none;stroke-width:1.2;stroke-linecap:butt;stroke-linejoin:miter;stroke:rgb(0%,0%,0%);stroke-opacity:1;stroke-miterlimit:10;" d="M 250.589844 140.636719 L 263.71875 116.707031 "/>
<path style="fill:none;stroke-width:1.2;stroke-linecap:butt;stroke-linejoin:miter;stroke:rgb(0%,0%,0%);stroke-opacity:1;stroke-miterlimit:10;" d="M 250.589844 140.636719 L 264.75 163.972656 "/>
<path style="fill:none;stroke-width:1.2;stroke-linecap:butt;stroke-linejoin:miter;stroke:rgb(0%,0%,0%);stroke-opacity:1;stroke-miterlimit:10;" d="M 86.804688 77.652344 L 80.546875 51.082031 "/>
<path style="fill:none;stroke-width:1.2;stroke-linecap:butt;stroke-linejoin:miter;stroke:rgb(0%,0%,0%);stroke-opacity:1;stroke-miterlimit:10;" d="M 86.804688 77.652344 L 113.371094 71.394531 "/>
<path style="fill:none;stroke-width:1.2;stroke-linecap:butt;stroke-linejoin:miter;stroke:rgb(0%,0%,0%);stroke-opacity:1;stroke-miterlimit:10;" d="M 86.804688 77.652344 L 60.234375 83.90625 "/>
</g>
</svg>

<svg xmlns="http://www.w3.org/2000/svg" xmlns:xlink="http://www.w3.org/1999/xlink" width="300pt" height="300pt" viewBox="0 0 300 300"><defs><symbol overflow="visible"><path d="M.547 1.938V-7.75h5.5v9.688zm.625-.61h4.266v-8.47H1.171zm0 0"/></symbol><symbol overflow="visible" id="a"><path d="M1.078-8.016h4.61v.907H2.171v2.36h3.172v.922H2.172V0H1.078zm0 0"/></symbol><symbol overflow="visible" id="b"><path d="M1.078-8.016h1.47l3.546 6.704v-6.704h1.062V0H5.688L2.124-6.703V0H1.078zm0 0"/></symbol><symbol overflow="visible" id="c"><path d="M1.078-8.016h1.094v3.282H6.11v-3.282h1.077V0H6.11v-3.813H2.17V0H1.078zm0 0"/></symbol></defs><g><path fill="#fff" d="M0 0h300v300H0z"/><path d="M35.25 155.12l8.262 10.864" stroke-width="1.2" stroke="#3cc" stroke-miterlimit="10" fill="none"/><path d="M43.512 165.984l8.26 10.864" stroke-width="1.2" stroke="#000" stroke-miterlimit="10" fill="none"/><path d="M28.25 148.62h7v13h-7zm0 0" fill="#fff"/><use xlink:href="#a" x="28.25" y="158.522" fill="#3cc"/><path d="M51.773 176.848L41.215 202.02M56.64 181.848l-8.445 20.136M78.848 173.402l-27.075 3.446M41.215 202.02l16.523 21.726M57.738 223.746l-5.277 12.586" stroke-width="1.2" stroke="#000" stroke-miterlimit="10" fill="none"/><path d="M52.46 236.332l-5.276 12.586" stroke-width="1.2" stroke="#3cc" stroke-miterlimit="10" fill="none"/><path d="M57.738 223.746l27.078-3.445M59.637 217.03l21.66-2.757" stroke-width="1.2" stroke="#000" stroke-miterlimit="10" fill="none"/><path d="M40.184 242.418h7v13h-7zm0 0" fill="#fff"/><use xlink:href="#a" x="40.184" y="252.319" fill="#3cc"/><path d="M84.816 220.3l10.555-25.17M95.37 195.13L78.85 173.4M88.605 196.844l-13.218-17.38M78.848 173.402l10.554-25.172M89.402 148.23l-7.078-11.667" stroke-width="1.2" stroke="#000" stroke-miterlimit="10" fill="none"/><path d="M82.324 136.563l-7.082-11.665" stroke-width="1.2" stroke="#00f" stroke-miterlimit="10" fill="none"/><path d="M115.973 141.977l-26.57 6.253M111.844 136.348l-21.254 5.007" stroke-width="1.2" stroke="#000" stroke-miterlimit="10" fill="none"/><path d="M75.242 124.898l8.91-10.34" stroke-width="1.2" stroke="#00f" stroke-miterlimit="10" fill="none"/><path d="M84.152 114.56l8.907-10.34" stroke-width="1.2" stroke="#000" stroke-miterlimit="10" fill="none"/><path d="M67.242 118.398h17v13h-17zm0 0" fill="#fff"/><g fill="#00f"><use xlink:href="#b" x="67.242" y="128.3"/><use xlink:href="#c" x="75.226" y="128.3"/></g><path d="M93.06 104.22l12.585 5.276" stroke-width="1.2" stroke="#000" stroke-miterlimit="10" fill="none"/><path d="M105.645 109.496l12.585 5.277" stroke-width="1.2" stroke="#00f" stroke-miterlimit="10" fill="none"/><path d="M93.094 111.195l10.07 4.223" stroke-width="1.2" stroke="#000" stroke-miterlimit="10" fill="none"/><path d="M103.164 115.418l10.066 4.223" stroke-width="1.2" stroke="#00f" stroke-miterlimit="10" fill="none"/><path d="M93.06 104.22L86.804 77.65" stroke-width="1.2" stroke="#000" stroke-miterlimit="10" fill="none"/><path d="M118.23 114.773l-1.128 13.602" stroke-width="1.2" stroke="#00f" stroke-miterlimit="10" fill="none"/><path d="M117.102 128.375l-1.13 13.602" stroke-width="1.2" stroke="#000" stroke-miterlimit="10" fill="none"/><path d="M114.23 108.273h8v13h-8zm0 0" fill="#fff"/><use xlink:href="#b" x="114.23" y="118.175" fill="#00f"/><path d="M115.973 141.977l20.675 17.816M136.648 159.793l12.887-4.5" stroke-width="1.2" stroke="#000" stroke-miterlimit="10" fill="none"/><path d="M149.535 155.293l12.883-4.5" stroke-width="1.2" stroke="#00f" stroke-miterlimit="10" fill="none"/><path d="M141.344 164.957l10.308-3.602" stroke-width="1.2" stroke="#000" stroke-miterlimit="10" fill="none"/><path d="M151.652 161.355l10.31-3.597" stroke-width="1.2" stroke="#00f" stroke-miterlimit="10" fill="none"/><path d="M131.56 186.61l5.088-26.817" stroke-width="1.2" stroke="#000" stroke-miterlimit="10" fill="none"/><path d="M162.418 150.793l10.34 8.906" stroke-width="1.2" stroke="#00f" stroke-miterlimit="10" fill="none"/><path d="M172.758 159.7l10.34 8.91" stroke-width="1.2" stroke="#000" stroke-miterlimit="10" fill="none"/><path d="M158.418 144.293h8v13h-8zm0 0" fill="#fff"/><use xlink:href="#b" x="158.418" y="154.194" fill="#00f"/><path d="M183.098 168.61l13.535-1.723" stroke-width="1.2" stroke="#000" stroke-miterlimit="10" fill="none"/><path d="M196.633 166.887l13.54-1.723" stroke-width="1.2" stroke="#00f" stroke-miterlimit="10" fill="none"/><path d="M178.004 195.426l5.094-26.817M172.203 191.547l4.074-21.453" stroke-width="1.2" stroke="#000" stroke-miterlimit="10" fill="none"/><path d="M210.172 165.164l5.824 12.344" stroke-width="1.2" stroke="#00f" stroke-miterlimit="10" fill="none"/><path d="M215.996 177.508l5.82 12.344" stroke-width="1.2" stroke="#000" stroke-miterlimit="10" fill="none"/><path d="M210.172 165.164l6.566-11.965" stroke-width="1.2" stroke="#00f" stroke-miterlimit="10" fill="none"/><path d="M216.738 153.2l6.563-11.966" stroke-width="1.2" stroke="#000" stroke-miterlimit="10" fill="none"/><path d="M206.172 158.664h8v13h-8zm0 0" fill="#fff"/><use xlink:href="#b" x="206.172" y="168.565" fill="#00f"/><path d="M221.816 189.852l-9.94 9.35" stroke-width="1.2" stroke="#000" stroke-miterlimit="10" fill="none"/><path d="M211.875 199.203l-9.938 9.352" stroke-width="1.2" stroke="#00f" stroke-miterlimit="10" fill="none"/><path d="M215.43 187.043l-7.953 7.48" stroke-width="1.2" stroke="#000" stroke-miterlimit="10" fill="none"/><path d="M207.477 194.523l-7.954 7.48M201.938 208.555l-11.97-6.567" stroke-width="1.2" stroke="#00f" stroke-miterlimit="10" fill="none"/><path d="M189.97 201.988l-11.966-6.562" stroke-width="1.2" stroke="#000" stroke-miterlimit="10" fill="none"/><path d="M197.938 202.055h8v13h-8zm0 0" fill="#fff"/><use xlink:href="#b" x="197.938" y="211.956" fill="#00f"/><path d="M178.004 195.426l-25.766 9M152.238 204.426l-20.68-17.817M154.36 197.777l-16.54-14.254M223.3 141.234l27.29-.597M250.59 140.637l13.13-23.93M250.59 140.637l14.16 23.336M86.805 77.652l-6.258-26.57M86.805 77.652l26.566-6.257M86.805 77.652l-26.57 6.254" stroke-width="1.2" stroke="#000" stroke-miterlimit="10" fill="none"/></g></svg>
